X:8242
T:Fj\"arran han dr\"ojer
T:Tuoll' on mun kultani
C:anon.
O:Finland
Z:Transcribed by Frank Nordberg - http://www.musicaviva.com
F:http://abc.musicaviva.com/tunes/finland/fjarran-han-drojer/fjarran-han-drojer.abc
%Posted September 1st 2001 at abcusers by Frank Nordberg with a request for the name.
M:2/4
L:1/8
Q:1/4=72
K:Em
B2BB|g2fe|e2ed|B2G2|A2AA|d2ed|A2cc|B2G2|
B2BB|g2fe|e2ed|B2G2|BAGA|B4|BAFG|E3z|]
W:
W:
W:  From Musica Viva - http://www.musicaviva.com
W:  the Internet center for free sheet music downloads.
